images/man-face.svg

<svg width="101" height="100" viewBox="0 0 101 100" fill="none" xmlns="http://www.w3.org/2000/svg">
<path d="M32.8108 71.3158C32.3988 71.063 32.9488 71.3256 33.3628 69.5818C33.4578 69.1818 33.9508 67.5262 34.4538 67.3998C34.9718 67.2711 36.0678 67.9622 36.5578 67.5949C36.8938 67.3431 38.1339 65.6308 38.6609 65.8423C39.7939 66.2946 39.4508 66.2259 40.5888 66.5823C41.6508 66.9137 41.9318 67.0041 42.3628 67.1273C42.4598 67.1556 44.3518 67.572 44.2718 67.5949C42.5188 68.1017 41.0798 68.869 40.6878 69.1142C38.7088 70.3512 35.1638 72.7589 32.8108 71.3158Z" fill="white" stroke="white" stroke-width="2" stroke-miterlimit="10" stroke-linecap="round" stroke-linejoin="round"/>
<path d="M31.9759 55.0107C31.5349 55.8935 30.7099 57.6613 30.6039 58.7196C30.4679 60.0755 31.3119 62.4809 33.5239 61.597C34.3789 61.2548 35.0688 60.5638 36.0268 60.4439C37.1058 60.3087 38.5809 60.4657 39.5509 59.8837C40.1309 59.536 41.5829 58.118 41.1639 57.282" stroke="white" stroke-width="2" stroke-miterlimit="10" stroke-linecap="round" stroke-linejoin="round"/>
<path d="M61.4379 35.6361C62.5439 61.8845 55.4519 49.7308 32.1459 54.6769C24.6979 56.2573 18.3889 61.7319 17.2629 57.5172C15.3549 50.5254 17.6269 42.5428 17.6269 42.5428C17.6269 42.5428 20.376 39.781 28.655 37.6099C36.517 35.5478 49.1639 35.3875 49.1639 35.3875C49.1639 35.3875 56.9559 35.3167 61.4379 35.6361Z" fill="white" stroke="white" stroke-width="2" stroke-miterlimit="10" stroke-linecap="round" stroke-linejoin="round"/>
<path d="M24.2741 57.6426C24.0231 58.0349 24.3212 58.6867 24.3302 59.127C24.4172 63.636 26.5032 67.5652 28.5672 71.5008C30.9412 76.0284 33.4601 84.3226 39.1621 85.6545C42.3221 86.3924 48.1901 84.0196 50.7821 82.4719C53.7321 80.7096 54.0161 80.6965 57.1591 79.2349C58.4271 78.6442 61.8252 76.727 62.7492 75.6839C64.7102 73.4681 66.1001 71.3385 67.0401 68.5352C67.4601 67.2862 68.5101 62.314 67.9901 60.9243" stroke="white" stroke-width="2" stroke-miterlimit="10" stroke-linecap="round" stroke-linejoin="round"/>
<path d="M25.9496 31.8245C26.1336 31.5717 27.7346 29.6796 27.9286 29.4256C29.1346 27.8518 29.7276 27.5728 31.3816 26.5177C37.2736 22.7564 46.3336 21.3842 53.1176 23.4017C54.8866 23.9281 58.4716 24.266 59.2606 26.2681C59.7066 27.3984 59.5956 28.9722 59.9266 30.0469C59.9276 30.0501 62.2656 30.7869 62.3726 31.661C62.5836 33.3831 62.8176 36.8981 63.0966 40.1874C63.2986 42.5667 65.8096 43.3809 66.0996 44.3302C66.1296 44.3989 66.6696 41.2381 66.6696 41.2381C66.6696 41.2381 67.6296 38.3008 67.6896 38.2202C68.0996 37.7406 68.9696 36.8142 69.4896 36.5428C70.8896 35.8158 73.3096 36.6398 73.3096 34.6267C73.3096 31.5074 73.3296 27.4038 70.8096 25.0398C66.8796 21.3613 61.1296 19.8987 56.0366 18.569C49.3266 16.8175 43.7276 13.8791 36.5876 15.4442C31.3066 16.6017 27.1356 21.1619 25.6186 26.2649C25.0626 28.1308 24.3586 31.7886 24.2716 32.8381C24.2276 33.3569 25.5606 32.3597 25.9496 31.8245Z" stroke="white" stroke-width="2" stroke-miterlimit="10" stroke-linecap="round" stroke-linejoin="round"/>
<path d="M66.2798 43.9719C66.0798 45.683 65.6498 46.9223 66.0598 51.1468C66.3398 53.9239 66.7898 56.8427 67.5798 59.5108C68.3298 62.0699 69.8197 66.835 72.1697 68.1582C73.8597 69.1107 81.6297 65.9151 82.6597 63.8912C86.4097 56.4797 85.6897 47.0454 81.9097 39.5228C80.1597 36.0373 73.5498 36.1332 69.9398 36.2978" stroke="white" stroke-width="2" stroke-miterlimit="10" stroke-linecap="round" stroke-linejoin="round"/>
<path d="M73.5095 36.248C73.5095 36.248 73.0695 37.6779 73.0195 37.8251C72.7795 38.6414 72.8195 38.5553 72.5995 39.3771C72.0295 41.4578 71.7095 43.5984 71.5195 45.7488C70.8995 52.5466 72.3295 62.8005 79.1395 66.2032" stroke="white" stroke-width="2" stroke-miterlimit="10" stroke-linecap="round" stroke-linejoin="round"/>
<path d="M17.3389 57.7686C17.7319 65.689 20.3389 74.005 22.9359 76.8257C25.0349 79.1069 27.8429 78.1968 31.2319 77.8274" stroke="white" stroke-width="2" stroke-miterlimit="10" stroke-linecap="round" stroke-linejoin="round"/>
<path d="M61.4266 35.4965C61.0186 30.9341 57.6366 29.8965 55.7626 29.7047C46.7216 28.7761 37.0056 29.721 27.9026 32.2224C25.0206 33.0147 19.1206 34.6561 18.6586 37.3286C18.4036 38.8055 17.5996 42.4131 17.5996 42.4131" stroke="white" stroke-width="2" stroke-miterlimit="10" stroke-linecap="round" stroke-linejoin="round"/>
<path d="M67.8699 60.4668C65.9199 65.4553 60.4989 69.6559 52.9619 70.9801" stroke="white" stroke-width="2" stroke-miterlimit="10" stroke-linecap="round" stroke-linejoin="round"/>
<path d="M52.3051 69.4576C52.6831 69.6636 52.5891 70.0156 52.6821 70.627C52.7501 71.0761 53.0091 71.9894 52.8671 72.4298C52.6631 73.0619 49.8251 73.0347 49.3381 72.663C47.6571 71.3802 51.2071 68.8592 52.3051 69.4576Z" fill="white" stroke="white" stroke-width="2" stroke-miterlimit="10" stroke-linecap="round" stroke-linejoin="round"/>
</svg>

<svg width="101" height="100" fill="none" xmlns="http://www.w3.org/2000/svg"><path d="M32.81 71.316c-.411-.253.139.01.553-1.734.095-.4.588-2.056 1.09-2.182.519-.129 1.615.562 2.105.195.336-.252 1.576-1.964 2.103-1.753 1.133.453.79.384 1.928.74 1.062.332 1.343.422 1.774.545.097.029 1.989.445 1.909.468-1.753.507-3.192 1.274-3.584 1.52-1.98 1.236-5.524 3.644-7.877 2.2Z" fill="#fff" stroke="#fff" stroke-width="2" stroke-miterlimit="10" stroke-linecap="round" stroke-linejoin="round"/><path d="M31.976 55.01c-.441.884-1.266 2.651-1.372 3.71-.136 1.355.708 3.76 2.92 2.877.855-.342 1.545-1.033 2.503-1.153 1.079-.135 2.554.022 3.524-.56.58-.348 2.032-1.766 1.613-2.602" stroke="#fff" stroke-width="2" stroke-miterlimit="10" stroke-linecap="round" stroke-linejoin="round"/><path d="M61.438 35.636c1.106 26.248-5.986 14.095-29.292 19.04-7.448 1.581-13.757 7.056-14.883 2.841-1.908-6.992.364-14.974.364-14.974s2.749-2.762 11.028-4.933c7.862-2.062 20.509-2.222 20.509-2.222s7.792-.071 12.274.248Z" fill="#fff" stroke="#fff" stroke-width="2" stroke-miterlimit="10" stroke-linecap="round" stroke-linejoin="round"/><path d="M24.274 57.643c-.25.392.047 1.044.056 1.484.087 4.509 2.173 8.438 4.237 12.374 2.374 4.527 4.893 12.822 10.595 14.153 3.16.738 9.028-1.634 11.62-3.182 2.95-1.762 3.234-1.775 6.377-3.237 1.268-.59 4.666-2.508 5.59-3.551 1.961-2.216 3.351-4.346 4.291-7.149.42-1.249 1.47-6.221.95-7.61M25.95 31.825c.184-.253 1.785-2.145 1.979-2.4 1.206-1.573 1.799-1.852 3.453-2.907 5.892-3.762 14.952-5.134 21.736-3.116 1.769.526 5.354.864 6.143 2.866.446 1.13.335 2.704.666 3.779 0 .003 2.339.74 2.446 1.614.21 1.722.445 5.237.724 8.526.202 2.38 2.713 3.194 3.003 4.143.03.069.57-3.092.57-3.092s.96-2.937 1.02-3.018c.41-.48 1.28-1.406 1.8-1.677 1.4-.727 3.82.097 3.82-1.916 0-3.12.02-7.223-2.5-9.587-3.93-3.679-9.68-5.141-14.773-6.471-6.71-1.752-12.31-4.69-19.45-3.125-5.28 1.158-9.451 5.718-10.968 10.82-.556 1.867-1.26 5.525-1.347 6.574-.044.519 1.289-.478 1.678-1.014Z" stroke="#fff" stroke-width="2" stroke-miterlimit="10" stroke-linecap="round" stroke-linejoin="round"/><path d="M66.28 43.972c-.2 1.711-.63 2.95-.22 7.175.28 2.777.73 5.696 1.52 8.364.75 2.559 2.24 7.324 4.59 8.647 1.69.953 9.46-2.243 10.49-4.267 3.75-7.411 3.03-16.846-.75-24.368-1.75-3.486-8.36-3.39-11.97-3.225" stroke="#fff" stroke-width="2" stroke-miterlimit="10" stroke-linecap="round" stroke-linejoin="round"/><path d="M73.51 36.248s-.44 1.43-.49 1.577c-.24.816-.2.73-.42 1.552-.57 2.08-.89 4.221-1.08 6.372-.62 6.798.81 17.051 7.62 20.454M17.339 57.769c.393 7.92 3 16.236 5.597 19.057 2.099 2.28 4.907 1.37 8.296 1.001M61.427 35.496c-.408-4.562-3.79-5.6-5.664-5.791-9.041-.929-18.757.016-27.86 2.517-2.882.793-8.782 2.434-9.244 5.107-.255 1.477-1.06 5.084-1.06 5.084M67.87 60.467c-1.95 4.988-7.371 9.189-14.908 10.513" stroke="#fff" stroke-width="2" stroke-miterlimit="10" stroke-linecap="round" stroke-linejoin="round"/><path d="M52.305 69.458c.378.206.284.558.377 1.169.068.45.327 1.362.185 1.803-.204.632-3.042.605-3.529.233-1.68-1.283 1.87-3.804 2.967-3.205Z" fill="#fff" stroke="#fff" stroke-width="2" stroke-miterlimit="10" stroke-linecap="round" stroke-linejoin="round"/></svg>
